X:264
T:The Castle
T:Mulqueen's Reel
M:4/4
L:1/8
R:reel
N:Learned from Tracy Lau
Z:Michael Abraham Shulman
K:D
g~B3 gBaB|g~B3 gfed|(3cBA eB fBeB|(3Bcd ef gfef|
g~B3 gBaB|g~B3 gfed|cdef gecd|1 eddc d2ef:|2 eddc dBAG|
F2AF GFED|F2AF GFED|EDEF GFED|EDEF GBAG|
F2AF GFED|FAAF GFED|(3Bcd ef gecd|1 eddc dBAG:|2 eddc d2ef|
